X:5
T:Sleepy Seas
T:Melbourne 1920
C:Reginald Stoneham 1879-1942
L:1/4
M:3/4
I:linebreak $
K:G
z G, ^G, | A,2 C/E/ | G B G | A3 | B,2 G,/A,/ | B, D =F | A B3/2 G/ | A3- | A z G,/^G,/ | 
w:Oh the wind played a me-lo-dy ten-der as it played through the palms by the shore * there she 
A,2 C/E/ | G2 A/^A/ |$ B2 G | D ^C D | E ^D E | F2 D | G3- | G G, ^G, | A,2 C/E/ | G B3/2 G/ | 
w:drooped in my arms, with her smiles and her charms, that I'll wor-ship for-ever more. *her lips are like the heart of a 
A3 | B,2 G,/A,/ | B, D =F | A B3/2 A/ |$ ^G3- | ^G2 G | A =G E | ^C2 A, | =F E D | =F2 C/D/ | 
w:rose bud their * sweet-ness is wait-ing for me * though now far a-way I'll go back some day to a 
E- E/>G/ A/>G/ | D- D/>G/ A/>G/ | c3- | c z2 |] 
w:bride *that waits be-side * the slee-py sea.

